X: 37428
T: Sliabh Geal gCua
R: hornpipe
M: 4/4
K: Gmajor
B>c|d3 c (B>dcA)|B3 A (GFD>E)|=F2 G4 (B{BcB}A)|(G>FDB,) C2 {DCD}(B,C)|
(DGG>A) B2 (Bc)|d3 c (B>dcA)|B3 A (GFD>E)|=F2 G4 (B{BcB}A)|(G>FDB,) C2 {DCD} (B,C)|
(DGG>F) G3 D|(G>AB>c) d d2 (d|(d>)edc/B/) Bc d2 c|(B>cA>F) G A2 G|
(FDD>C) D2 (Bc)|d3 c (B>dcA)|B3 A (GFD>E)|=F2 G4 (B{BcB}A)|(G>FDB,) CD/C/ (B,C)|(DGG>F) G4||

